X: 2
T: The Galway Rambler
R: reel
M: 4/4
L: 1/8
K: Gmaj
GB dB eBdB|GABG AGEF | GB dB eBde | gedB AGEF |GB dB eBdB|GABG AGEF | GFGA BABd | gedB A2 Bd ||gfgb agab|gabg agef|gfgb agab|gedB A2 Bd|gfgb agab|gabg ageg|bgag egde|gedB AGEF||


Tune 634	Setting 29724

